X:1
T:Pipe Major J. K. Cairns
M:3/4
L:1/8
Q:80
C:P/M A. M. Cairns
S:Retreat March
K:HP
[| {g}A3/2B/2{GdG}c3e | \
{g}d/2c/2B{G}A4 | \
{Gdc}d3/2e/2{gfg}f3a |
df{gfg}fe3 | \
{g}c3/2d/2{gef}e3f | \
{gef}ec{gBd}B{G}A3 |
{g}B{GdG}c{g}ef{ag}a3/2f/2 | \
{g}eA{gcd}c{e}B3 | \
{g}A3/2B/2{GdG}c3e |
{g}d/2c/2B{G}A4 | \
{Gdc}d3/2e/2{gfg}f3a | \
df{gfg}fe3 |
{gcd}ce{ag}a3g | \
a3/2f/2{g}e{G}A3 | \
{g}f/2e/2d{gcd}c3e |
{g}d/2c/2B{G}A4|] [ | \
{g}e3/2f/2{gef}e3c | \
{g}A{d}c{gfg}fe3 |
{ag}a3/2g/2a3f | \
{g}df{gfg}fe3 | \
{g}c3/2d/2{gef}e3f |
{gef}ec{gBd}B{G}A3 | \
{g}B{GdG}c{g}ef{ag}a3/2f/2 | \
{g}eA{gcd}c{e}B3 |
{g}e3/2f/2{gef}e3c | \
{g}A{d}c{gfg}fe3 | \
{ag}a3/2g/2a3f |
{g}df{gfg}fe3 | \
{gcd}ce{ag}a3g | \
a3/2f/2{g}e{G}A3 |
{g}f/2e/2d{gcd}c3e | \
{g}d/2c/2B{G}A4|]
